X:1
T:GB/7e/1 Bonny Blue Handkerchief
T:GB/7e/1 Bonny Blue Handkerchief
T:Tooke Transcribed by Simon Furey and Lewis Jones
C:Tooke
C:Transcribed by Simon Furey and Lewis Jones
L:1/8
M:3/4
K:G
V:1 treble 
V:1
 E2 | A2 G2 E2 | !fermata!c2 B2 A2 | d2 c2 B2 | A4 E2 | A2 G2 E2 | c2 B2 A2 | d2 e2 f2 | e4 d2 | %9
 !fermata!e2 e2 f2 | g2 f2 e2 a2 a2 e2 f2 | d2 d2 f2 | e6 | c6 | d6 | d2 c2 A2 | A2 G2 E2 | %17
 d2 c2 B2 | A4 |] %19

